X:404
T:She's Gone, Gone, Gone
C:J.D. Crowe & the New South - My home ain't in the Hall of Fame
N: solo Jimmy Gaudreau - Transcribed by Philippe Colleu
R:bluegrass
L:1/8
Q:1/4=180
M:4/4
K:C
"(124 bpm)"z2 FG _B^c/z/ df | "Bb"g2 gf gf g_b | gf g_b gf gg | "Eb"f^d c_B dc B^F/z/ | 
G_B GF ^DF GB | "F"FD F^D A_B =Bc | fA f_B fg f^c/z/ | "Bb"df ^c/z/=c _BF GB | 
zF _B^c/z/ df g2 | [_b4_B4] [bB][bB] [bB]b | _B2 Bd/z/ ^f_b c'b | "Eb"^c'_b =c'2 b^f/z/ gb | 
^c'_b =c'b b^f/z/ gb | "F"^c'2 =c'2 _b^f/z/ gb | fd e_b ^dA ^c/z/=d | "Bb"_BB dB ^d^c/z/ =dd | 
[d2_B2] _b2 ^gf ^d^c/z/ | df ^d^c/z/ =d_B G[BD] | z8 | 


